home/arrowright1.svg

<?xml version="1.0" encoding="UTF-8" standalone="no"?>
<svg
   width="153.03394"
   height="153.03447"
   viewBox="0 0 153.03394 153.03447"
   fill="none"
   version="1.1"
   id="svg833"
   sodipodi:docname="arrowright1.svg"
   inkscape:version="1.1.2 (b8e25be8, 2022-02-05)"
   xmlns:inkscape="http://www.inkscape.org/namespaces/inkscape"
   xmlns:sodipodi="http://sodipodi.sourceforge.net/DTD/sodipodi-0.dtd"
   xmlns="http://www.w3.org/2000/svg"
   xmlns:svg="http://www.w3.org/2000/svg">
  <defs
     id="defs837" />
  <sodipodi:namedview
     id="namedview835"
     pagecolor="#ffffff"
     bordercolor="#666666"
     borderopacity="1.0"
     inkscape:pageshadow="2"
     inkscape:pageopacity="0"
     inkscape:pagecheckerboard="true"
     showgrid="false"
     inkscape:zoom="3.1535088"
     inkscape:cx="119.70793"
     inkscape:cy="79.118219"
     inkscape:window-width="1728"
     inkscape:window-height="1051"
     inkscape:window-x="3840"
     inkscape:window-y="38"
     inkscape:window-maximized="1"
     inkscape:current-layer="svg833"
     inkscape:snap-page="true" />
  <ellipse
     cx="76.517235"
     cy="-76.516968"
     stroke="#1e1e1e"
     stroke-width="2.23429"
     id="circle824"
     style="fill:#000000;stroke:#000000;stroke-width:6.1042;stroke-miterlimit:4;stroke-dasharray:none;fill-opacity:0;stroke-opacity:1"
     rx="73.465134"
     ry="73.464867"
     transform="rotate(90)"
     inkscape:export-filename="/Users/rolandodaumas/Personal/Gobio/gobio_2/public/home/Hero-flecha.png"
     inkscape:export-xdpi="96"
     inkscape:export-ydpi="96" />
  <mask
     id="mask0_2059_147"
     maskUnits="userSpaceOnUse"
     x="15"
     y="15"
     width="27"
     height="27">
    <rect
       x="15.3277"
       y="15.8251"
       width="26.0667"
       height="26.0667"
       fill="#d9d9d9"
       id="rect826" />
  </mask>
  <g
     mask="url(#mask0_2059_147)"
     id="g831"
     transform="matrix(2.7327731,0,0,2.7327731,-0.98830447,-2.3459479)"
     inkscape:export-filename="/Users/rolandodaumas/Personal/Gobio/gobio_2/public/home/Hero-flecha.png"
     inkscape:export-xdpi="96"
     inkscape:export-ydpi="96"
     style="fill:#000000;fill-opacity:1;stroke:#000000;stroke-opacity:1">
    <path
       d="m 37.1027,29.7786 c 0.5091,-0.5089 0.5091,-1.3354 0,-1.8443 l -6.5171,-6.5142 c -0.5091,-0.5089 -1.336,-0.5089 -1.8451,0 -0.5091,0.509 -0.5091,1.3354 0,1.8443 l 4.2972,4.2912 H 20.5413 c -0.721,0 -1.3034,0.5822 -1.3034,1.3029 0,0.7206 0.5824,1.3028 1.3034,1.3028 h 12.4923 l -4.289,4.2912 c -0.5092,0.5089 -0.5092,1.3354 0,1.8443 0.5091,0.5089 1.336,0.5089 1.8451,0 l 6.517,-6.5142 z"
       fill="#1E1E1E"
       id="path829"
       style="fill:#000000;fill-opacity:1;stroke:#000000;stroke-opacity:1" />
  </g>
</svg>

<svg width="57" height="57" viewBox="0 0 57 57" fill="none" xmlns="http://www.w3.org/2000/svg">
<circle cx="28.3614" cy="28.8583" r="26.8829" stroke="#1E1E1E" stroke-width="2.23429"/>
<mask id="mask0_2059_147" style="mask-type:alpha" maskUnits="userSpaceOnUse" x="15" y="15" width="27" height="27">
<rect x="15.3277" y="15.8251" width="26.0667" height="26.0667" fill="#D9D9D9"/>
</mask>
<g mask="url(#mask0_2059_147)">
<path d="M37.1027 29.7786C37.6118 29.2697 37.6118 28.4432 37.1027 27.9343L30.5856 21.4201C30.0765 20.9112 29.2496 20.9112 28.7405 21.4201C28.2314 21.9291 28.2314 22.7555 28.7405 23.2644L33.0377 27.5556H20.5413C19.8203 27.5556 19.2379 28.1378 19.2379 28.8585C19.2379 29.5791 19.8203 30.1613 20.5413 30.1613H33.0336L28.7446 34.4525C28.2354 34.9614 28.2354 35.7879 28.7446 36.2968C29.2537 36.8057 30.0806 36.8057 30.5897 36.2968L37.1067 29.7826L37.1027 29.7786Z" fill="#1E1E1E"/>
</g>
</svg>
